pro/src/icons/full-refresh.svg

<svg width="48" height="48" viewBox="0 0 48 48" fill="none" xmlns="http://www.w3.org/2000/svg">
<path id="icon" fill-rule="evenodd" clip-rule="evenodd" d="M24 44C35.0457 44 44 35.0457 44 24C44 12.9543 35.0457 4 24 4C12.9543 4 4 12.9543 4 24C4 35.0457 12.9543 44 24 44ZM30.9462 13.769C31.3182 14.809 30.7765 15.9537 29.7365 16.3256L28.6621 16.7099C29.7851 17.3027 30.7813 18.1026 31.599 19.0577C33.0947 20.8048 34 23.0784 34 25.5584C34 31.0812 29.5228 35.5584 24 35.5584C18.4772 35.5584 14 31.0812 14 25.5584C14 24.3353 14.2205 23.1592 14.6256 22.0707C15.0109 21.0355 16.1624 20.5086 17.1976 20.8939C18.2328 21.2791 18.7597 22.4306 18.3744 23.4658C18.1329 24.1147 18 24.8187 18 25.5584C18 28.8721 20.6863 31.5584 24 31.5584C27.3137 31.5584 30 28.8721 30 25.5584C30 24.0679 29.4591 22.7088 28.5604 21.6591C28.022 21.0302 27.3577 20.5149 26.6067 20.1521L27.4486 21.9013C27.9277 22.8966 27.5092 24.0918 26.5139 24.5709C25.5187 25.0499 24.3235 24.6314 23.8444 23.6362L20.9269 17.575C20.681 17.0641 20.6635 16.4729 20.8787 15.9483C21.094 15.4238 21.5217 15.0153 22.0556 14.8243L28.3896 12.5592C29.4296 12.1873 30.5743 12.7289 30.9462 13.769Z" fill="currentColor"/>
</svg>

<svg xmlns="http://www.w3.org/2000/svg" width="48" height="48" fill="none"><path id="icon" fill="currentColor" fill-rule="evenodd" d="M24 44c11.046 0 20-8.954 20-20S35.046 4 24 4 4 12.954 4 24s8.954 20 20 20m6.946-30.231a2 2 0 0 1-1.21 2.557l-1.074.384a10 10 0 0 1 2.937 2.348 9.97 9.97 0 0 1 2.401 6.5c0 5.523-4.477 10-10 10s-10-4.477-10-10c0-1.223.22-2.399.626-3.487a2 2 0 0 1 3.748 1.395 6 6 0 1 0 8.232-3.314l.843 1.75a2 2 0 0 1-3.605 1.734l-2.917-6.061a2 2 0 0 1 1.129-2.75l6.334-2.266a2 2 0 0 1 2.556 1.21" clip-rule="evenodd"/></svg>
